X:482
T: Es wohnt ein Mller (5-78), S. 125
N: P0752
O: Lothringen
S: MERKELBACH-PINCK, Angelika: Verklingende Weisen, Bd 5, Kassel 1962]
R: Liebe, Standesunterschied]
M: 2/4
L: 1/16
K: F
C2 | F2F2FFG2 | F2D2A,4 | F4G4 | A4z2
FG | A2AAAAc2 | c2BAB4 |
FFFFB3A | G4z2

@@@ Tune index: 8032
